src/assets/icons/suspiciousIcon.svg

<?xml version="1.0" encoding="UTF-8"?>
<svg width="100px" height="101px" viewBox="0 0 100 101" version="1.1" xmlns="http://www.w3.org/2000/svg" xmlns:xlink="http://www.w3.org/1999/xlink">
    <!-- Generator: Sketch 53.2 (72643) - https://sketchapp.com -->
    <title>Artboard</title>
    <desc>Created with Sketch.</desc>
    <defs>
        <polygon id="path-1" points="0 0.15 99.8498 0.15 99.8498 100 0 100"></polygon>
    </defs>
    <g id="Page-1" stroke="none" stroke-width="1" fill="none" fill-rule="evenodd">
        <g id="Artboard" transform="translate(-850.000000, -225.000000)">
            <g id="Group-2" transform="translate(850.000000, 224.000000)">
                <circle id="Oval" stroke="#979797" fill="#FF6B63" cx="49" cy="51" r="45"></circle>
                <g id="Group-19">
                    <g id="Group-18">
                        <g id="Group-3" transform="translate(0.000000, 0.850300)">
                            <mask id="mask-2" fill="white">
                                <use xlink:href="#path-1"></use>
                            </mask>
                            <g id="Clip-2"></g>
                            <path d="M49.9248,0.1499 C22.3518,0.1499 -0.0002,22.5029 -0.0002,50.0749 C-0.0002,77.6479 22.3518,100.0009 49.9248,100.0009 C77.4978,100.0009 99.8498,77.6479 99.8498,50.0749 C99.8498,22.5029 77.4978,0.1499 49.9248,0.1499 M49.4998,7.0009 C73.4864477,7.0009 92.9998,26.5140302 92.9998,50.5004048 C92.9998,74.4867795 73.4864477,94.0009 49.4998,94.0009 C25.5141426,94.0009 5.9998,74.4867795 5.9998,50.5004048 C5.9998,26.5140302 25.5141426,7.0009 49.4998,7.0009" id="Fill-1" fill="#B33D39" mask="url(#mask-2)"></path>
                        </g>
                        <path d="M32.5017,52.9582351 C33.0081914,53.5107194 33.3172,54.2470846 33.3172,55.0557 C33.3172,56.7707 31.9272,58.1607 30.2112,58.1607 C28.4962,58.1607 27.1062,56.7707 27.1062,55.0557 C27.1062,54.2672931 27.3999565,53.5475702 27.8840008,53 L20,53 C18.3431458,53 17,51.6568542 17,50 C17,48.3431458 18.3431458,47 20,47 L32,47 C33.6568542,47 35,48.3431458 35,50 C35,51.4859044 33.9197202,52.7194959 32.5017,52.9582351 Z M76.6869902,52.9209747 C77.2139335,53.4773961 77.5371,54.2287678 77.5371,55.0557 C77.5371,56.7707 76.1471,58.1607 74.4321,58.1607 C72.7171,58.1607 71.3261,56.7707 71.3261,55.0557 C71.3261,54.2672931 71.6200678,53.5475702 72.1043405,53 L64,53 C62.3431458,53 61,51.6568542 61,50 C61,48.3431458 62.3431458,47 64,47 L76,47 C77.6568542,47 79,48.3431458 79,50 C79,51.4204759 78.0127611,52.6103698 76.6869902,52.9209747 Z M44,64 C42.3431458,64 41,62.6568542 41,61 C41,59.3431458 42.3431458,58 44,58 L56,58 C57.6568542,58 59,59.3431458 59,61 C59,62.6568542 57.6568542,64 56,64 L44,64 Z M65,43 C63.3431458,43 62,41.6568542 62,40 C62,38.3431458 63.3431458,37 65,37 L73.28,37 C74.9368542,37 76.28,38.3431458 76.28,40 C76.28,41.6568542 74.9368542,43 73.28,43 L65,43 Z M22.5046924,39.8942149 C21.2671797,40.9959083 19.3708785,40.8858051 18.2691851,39.6482924 C17.1674917,38.4107797 17.2775949,36.5144785 18.5151076,35.4127851 C22.5784949,31.795362 29.390123,31.6433663 33.4136986,35.3404464 C34.6337252,36.4614733 34.7139804,38.359272 33.5929536,39.5792986 C32.4719267,40.7993252 30.574128,40.8795804 29.3541014,39.7585536 C27.6589876,38.2009907 24.3230454,38.2754295 22.5046924,39.8942149 Z" id="Combined-Shape" fill="#B33D39" fill-rule="nonzero"></path>
                    </g>
                </g>
            </g>
        </g>
    </g>
</svg>

<svg width="100" height="101" xmlns="http://www.w3.org/2000/svg" xmlns:xlink="http://www.w3.org/1999/xlink"><defs><path id="a" d="M0 .15h99.85V100H0z"/></defs><g transform="translate(0 -1)" fill="none" fill-rule="evenodd"><circle stroke="#979797" fill="#FF6B63" cx="49" cy="51" r="45"/><g transform="translate(0 .85)"><mask id="b" fill="#fff"><use xlink:href="#a"/></mask><path d="M49.925.15C22.352.15 0 22.503 0 50.075 0 77.648 22.352 100 49.925 100c27.573 0 49.925-22.353 49.925-49.926C99.85 22.503 77.498.15 49.925.15M49.5 7C73.486 7 93 26.515 93 50.5 93 74.487 73.486 94 49.5 94S6 74.488 6 50.5C6 26.514 25.514 7 49.5 7" fill="#B33D39" mask="url(#b)"/></g><path d="M32.502 52.958a3.105 3.105 0 1 1-4.618.042H20a3 3 0 0 1 0-6h12a3 3 0 0 1 .502 5.958zm44.185-.037a3.105 3.105 0 1 1-4.583.079H64a3 3 0 0 1 0-6h12a3 3 0 0 1 .687 5.921zM44 64a3 3 0 0 1 0-6h12a3 3 0 0 1 0 6H44zm21-21a3 3 0 0 1 0-6h8.28a3 3 0 0 1 0 6H65zm-42.495-3.106a3 3 0 1 1-3.99-4.481c4.063-3.618 10.875-3.77 14.899-.073a3 3 0 0 1-4.06 4.419c-1.695-1.558-5.031-1.484-6.85.135z" fill="#B33D39" fill-rule="nonzero"/></g></svg>
